X:1
T:Title
%%score { ( 1 4 ) | ( 2 3 ) }
L:1/8
M:4/4
K:D
V:1 treble nm="Grand Piano"
V:4 treble 
V:2 bass 
V:3 bass 
V:1
 z4 z2[Q:1/4=100] F>G | A2 F2 D2 [Fd]>[Ac] | [GB]2 [Gd]2 [FA]2 [FA]>[GB] | %3
 [FA]2 [DF]2 [EG]2 [EG]>[FA] | [EG]2 [CE]2 F2 F>G | A2 F2 D2 [Fd]>[Ac] |[M:3/4] [GB]2 [Gd]2 [FA]2 | %7
[M:1/4] [FA]>[GB] |[M:4/4] [FA]2 [A,DF]>[K:bass][F,D] [A,DF]2 [G,CE]2 |[M:3/4] [F,D]6 |[M:1/4] z2 | %11
[M:4/4] z2[K:treble] [CG]>[CG] [DF]2 z2 | z2 z z/ G/- G2 z2 | [FA]2 [FA]2 [FA]2 d2 | c6 A>A | %15
 [Fd]2 [FA]2 [DF]2 [DF]>[DF] |[M:9/8] [DG]2 [DA]- [DA] [DB]2- [DB][DB]>[DB] | %17
[M:4/4] [DA]2 [DF]2 [A,DF]2[K:bass] [G,CE]2 |[M:3/4] [F,D]6 |] %19
V:2
 z4 z2 F,>G, | A,2 F,2 D,2 [D,A,]>[F,D] | [G,D]2 [G,B,]2 [D,D]2 [D,D]>[D,D] | %3
 [D,D]2 [D,A,]2 [A,,A,]2 [A,,A,]>[A,,A,] | [A,,A,]2 [A,,A,]2 [D,A,D]2 F,>G, | %5
 A,2 F,2 D,2 [D,A,]>[F,D] |[M:3/4] [G,D]2 [G,B,]2 [D,D]2 |[M:1/4] [D,D]>[D,D] | %8
[M:4/4] [D,D]2 D,>D, A,,2 A,,2 |[M:3/4] D,6 |[M:1/4][K:treble] A>A | %11
[M:4/4] A6[K:bass][K:treble] z2 | G4[K:bass] z4 | [D,D]2 [D,D]2 [D,D]2[K:treble] [F,A,F]2 | %14
 [A,E]6 [A,CG]>[A,CG] | [D,D]2 [D,D]2 [D,A,]2 [=C,A,]>[C,A,] | %16
[M:9/8] [B,,G,]2 [A,,F,]- [A,,F,] [G,,G,]2- [G,,G,][G,,G,]>[G,,G,] | %17
[M:4/4] [A,,F,]2 z z/ D/ A,,2 A,,2 |[M:3/4] D,6 |] %19
V:3
 x8 | x8 | x8 | x8 | x8 | x8 |[M:3/4] x6 |[M:1/4] x2 |[M:4/4] x8 |[M:3/4] x6 | %10
[M:1/4][K:treble] x2 |[M:4/4] z2[K:bass] A,,>A,, D,2[K:treble] A>A | %12
 z2[K:bass] A,,>A,, D,2 [D,D]>[D,D] | x6[K:treble] x2 | x8 | x8 |[M:9/8] x9 | %17
[M:4/4] z2 [A,,F,]2 z4 |[M:3/4] x6 |] %19
V:4
 x8 | x8 | x8 | x8 | x8 | x8 |[M:3/4] x6 |[M:1/4] x2 |[M:4/4] x7/2[K:bass] x9/2 |[M:3/4] x6 | %10
[M:1/4] x2 |[M:4/4] x2[K:treble] x6 | z2 [CE]>E [DF]2 [FA]>[FA] | x8 | x8 | x8 |[M:9/8] x9 | %17
[M:4/4] x6[K:bass] x2 |[M:3/4] x6 |] %19

